/* XPM */
static char *east[] = {
/* columns rows colors chars-per-pixel */
"64 64 2 1",
"# c #3AAE5C",
". c #1D5A2E",
"................................................................",
".###############.###############.###############.###############",
".###############.###############.###############.###############",
".###############.###############.###############.###############",
".###############.###############.###############.###############",
".###############.###############.###############.###############",
".###############.###############.###############.###############",
".###############.###############.###############.###############",
"................................................................",
"########.###############.###############.###############.#######",
"########.###############.###############.###############.#######",
"########.###############.###############.###############.#######",
"########.###############.###############.###############.#######",
"########.###############.###############.###############.#######",
"########.###############.###############.###############.#######",
"########.###############.###############.###############.#######",
"................................................................",
".###############.###############.###############.###############",
".###############.###############.###############.###############",
".###############.###############.###############.###############",
".###############.###############.###############.###############",
".###############.###############.###############.###############",
".###############.###############.###############.###############",
".###############.###############.###############.###############",
"................................................................",
"########.###############.###############.###############.#######",
"########.###############.###############.###############.#######",
"########.###############.###############.###############.#######",
"########.###############.###############.###############.#######",
"########.###############.###############.###############.#######",
"########.###############.###############.###############.#######",
"########.###############.###############.###############.#######",
"................................................................",
".###############.###############.###############.###############",
".###############.###############.###############.###############",
".###############.###############.###############.###############",
".###############.###############.###############.###############",
".###############.###############.###############.###############",
".###############.###############.###############.###############",
".###############.###############.###############.###############",
"................................................................",
"########.###############.###############.###############.#######",
"########.###############.###############.###############.#######",
"########.###############.###############.###############.#######",
"########.###############.###############.###############.#######",
"########.###############.###############.###############.#######",
"########.###############.###############.###############.#######",
"########.###############.###############.###############.#######",
"................................................................",
".###############.###############.###############.###############",
".###############.###############.###############.###############",
".###############.###############.###############.###############",
".###############.###############.###############.###############",
".###############.###############.###############.###############",
".###############.###############.###############.###############",
".###############.###############.###############.###############",
"................................................................",
"########.###############.###############.###############.#######",
"########.###############.###############.###############.#######",
"########.###############.###############.###############.#######",
"########.###############.###############.###############.#######",
"########.###############.###############.###############.#######",
"########.###############.###############.###############.#######",
"########.###############.###############.###############.#######"
};
