/* XPM */
static char *north[] = {
/* columns rows colors chars-per-pixel */
"64 64 2 1",
"# c #B33A3A",
". c #5A1D1D",
"................................................................",
".###############.###############.###############.###############",
".###############.###############.###############.###############",
".###############.###############.###############.###############",
".###############.###############.###############.###############",
".###############.###############.###############.###############",
".###############.###############.###############.###############",
".###############.###############.###############.###############",
"................................................................",
"########.###############.###############.###############.#######",
"########.###############.###############.###############.#######",
"########.###############.###############.###############.#######",
"########.###############.###############.###############.#######",
"########.###############.###############.###############.#######",
"########.###############.###############.###############.#######",
"########.###############.###############.###############.#######",
"................................................................",
".###############.###############.###############.###############",
".###############.###############.###############.###############",
".###############.###############.###############.###############",
".###############.###############.###############.###############",
".###############.###############.###############.###############",
".###############.###############.###############.###############",
".###############.###############.###############.###############",
"................................................................",
"########.###############.###############.###############.#######",
"########.###############.###############.###############.#######",
"########.###############.###############.###############.#######",
"########.###############.###############.###############.#######",
"########.###############.###############.###############.#######",
"########.###############.###############.###############.#######",
"########.###############.###############.###############.#######",
"................................................................",
".###############.###############.###############.###############",
".###############.###############.###############.###############",
".###############.###############.###############.###############",
".###############.###############.###############.###############",
".###############.###############.###############.###############",
".###############.###############.###############.###############",
".###############.###############.###############.###############",
"................................................................",
"########.###############.###############.###############.#######",
"########.###############.###############.###############.#######",
"########.###############.###############.###############.#######",
"########.###############.###############.###############.#######",
"########.###############.###############.###############.#######",
"########.###############.###############.###############.#######",
"########.###############.###############.###############.#######",
"................................................................",
".###############.###############.###############.###############",
".###############.###############.###############.###############",
".###############.###############.###############.###############",
".###############.###############.###############.###############",
".###############.###############.###############.###############",
".###############.###############.###############.###############",
".###############.###############.###############.###############",
"................................................................",
"########.###############.###############.###############.#######",
"########.###############.###############.###############.#######",
"########.###############.###############.###############.#######",
"########.###############.###############.###############.#######",
"########.###############.###############.###############.#######",
"########.###############.###############.###############.#######",
"########.###############.###############.###############.#######"
};
