/* XPM */
static char *south[] = {
/* columns rows colors chars-per-pixel */
"64 64 2 1",
"# c #3A6EB3",
". c #1D355A",
"................................................................",
".###############.###############.###############.###############",
".###############.###############.###############.###############",
".###############.###############.###############.###############",
".###############.###############.###############.###############",
".###############.###############.###############.###############",
".###############.###############.###############.###############",
".###############.###############.###############.###############",
"................................................................",
"########.###############.###############.###############.#######",
"########.###############.###############.###############.#######",
"########.###############.###############.###############.#######",
"########.###############.###############.###############.#######",
"########.###############.###############.###############.#######",
"########.###############.###############.###############.#######",
"########.###############.###############.###############.#######",
"................................................................",
".###############.###############.###############.###############",
".###############.###############.###############.###############",
".###############.###############.###############.###############",
".###############.###############.###############.###############",
".###############.###############.###############.###############",
".###############.###############.###############.###############",
".###############.###############.###############.###############",
"................................................................",
"########.###############.###############.###############.#######",
"########.###############.###############.###############.#######",
"########.###############.###############.###############.#######",
"########.###############.###############.###############.#######",
"########.###############.###############.###############.#######",
"########.###############.###############.###############.#######",
"########.###############.###############.###############.#######",
"................................................................",
".###############.###############.###############.###############",
".###############.###############.###############.###############",
".###############.###############.###############.###############",
".###############.###############.###############.###############",
".###############.###############.###############.###############",
".###############.###############.###############.###############",
".###############.###############.###############.###############",
"................................................................",
"########.###############.###############.###############.#######",
"########.###############.###############.###############.#######",
"########.###############.###############.###############.#######",
"########.###############.###############.###############.#######",
"########.###############.###############.###############.#######",
"########.###############.###############.###############.#######",
"########.###############.###############.###############.#######",
"................................................................",
".###############.###############.###############.###############",
".###############.###############.###############.###############",
".###############.###############.###############.###############",
".###############.###############.###############.###############",
".###############.###############.###############.###############",
".###############.###############.###############.###############",
".###############.###############.###############.###############",
"................................................................",
"########.###############.###############.###############.#######",
"########.###############.###############.###############.#######",
"########.###############.###############.###############.#######",
"########.###############.###############.###############.#######",
"########.###############.###############.###############.#######",
"########.###############.###############.###############.#######",
"########.###############.###############.###############.#######"
};
