/* XPM */
static char *west[] = {
/* columns rows colors chars-per-pixel */
"64 64 2 1",
"# c #C9A227",
". c #6B5410",
"................................................................",
".###############.###############.###############.###############",
".###############.###############.###############.###############",
".###############.###############.###############.###############",
".###############.###############.###############.###############",
".###############.###############.###############.###############",
".###############.###############.###############.###############",
".###############.###############.###############.###############",
"................................................................",
"########.###############.###############.###############.#######",
"########.###############.###############.###############.#######",
"########.###############.###############.###############.#######",
"########.###############.###############.###############.#######",
"########.###############.###############.###############.#######",
"########.###############.###############.###############.#######",
"########.###############.###############.###############.#######",
"................................................................",
".###############.###############.###############.###############",
".###############.###############.###############.###############",
".###############.###############.###############.###############",
".###############.###############.###############.###############",
".###############.###############.###############.###############",
".###############.###############.###############.###############",
".###############.###############.###############.###############",
"................................................................",
"########.###############.###############.###############.#######",
"########.###############.###############.###############.#######",
"########.###############.###############.###############.#######",
"########.###############.###############.###############.#######",
"########.###############.###############.###############.#######",
"########.###############.###############.###############.#######",
"########.###############.###############.###############.#######",
"................................................................",
".###############.###############.###############.###############",
".###############.###############.###############.###############",
".###############.###############.###############.###############",
".###############.###############.###############.###############",
".###############.###############.###############.###############",
".###############.###############.###############.###############",
".###############.###############.###############.###############",
"................................................................",
"########.###############.###############.###############.#######",
"########.###############.###############.###############.#######",
"########.###############.###############.###############.#######",
"########.###############.###############.###############.#######",
"########.###############.###############.###############.#######",
"########.###############.###############.###############.#######",
"########.###############.###############.###############.#######",
"................................................................",
".###############.###############.###############.###############",
".###############.###############.###############.###############",
".###############.###############.###############.###############",
".###############.###############.###############.###############",
".###############.###############.###############.###############",
".###############.###############.###############.###############",
".###############.###############.###############.###############",
"................................................................",
"########.###############.###############.###############.#######",
"########.###############.###############.###############.#######",
"########.###############.###############.###############.#######",
"########.###############.###############.###############.#######",
"########.###############.###############.###############.#######",
"########.###############.###############.###############.#######",
"########.###############.###############.###############.#######"
};
